X: 17489
T: Hills Of Connemara, The
R: reel
M: 4/4
K: Dmajor
|:dd B/c/d/B/ AD FA|dd B/c/d/B/ AF E2|
dd B/c/d/B/ ADd d/e/|fdec d2d2:|
|:fd d e/f/ gf ed|fd d e/d/ fg a2|
fd d e/f/ gf ed|fdec d2d2:|

